X: 03030
T: FIRE IN THE STOVE
C: Bob McQuillen 5 Jan 77
B: Bob's Note Book 03 #30
%R: jig
%D:1977
Z: 2020 John Chambers <jc:trillian.mit.edu>
M: 6/8
L: 1/8
K: A
|:EAA EAA | Bcd cAA | efe fef | ecA c2B |\
| EAA EAA | Bcd cAA | efe fec | ABc B2A :|
|:faa efe | dcB cAA | faa efe | dcd e2e |\
| faa efe | dcB cAA | faa efe |1 dcB A2e :|2 efg a3 |]
%%begintext align
%% The wind's a-blowin'
%% an' sometimes it's snowin'
%% an' "Baby, it's cold outside!"
%%endtext

%%sep 1 1 500

%%sep 1 1 500

